X:1
T:Young Alan (5)
M:6/8
L:1/8
K:C
 C2 C| D2 D D2 G| A2 A D2 D| GGG E2 D| C3- C3| D2 D|D-E G| A2 A G2 G|\
 A2 c E2 C| D3||
